( Generated by Carbide Copper )
( Material Size )
( X= 18.000, Y= 18.000, Z= 1.580 )
()
G17
G21
G54
G90
M05
(  )
T302 M06
( Contour )
M03 S10000
G0  X1.085 Y16.316
G0  Z3.000
G01 F400 Z0
G01 F400 Z-0.200
G01F400X1.085 Y14.285
X3.115 Y14.285
X3.115 Y14.637
X14.985 Y14.637
X14.985 Y14.285
X17.015 Y14.285
X17.015 Y16.316
X14.985 Y16.316
X14.985 Y15.963
X3.115 Y15.963
X3.115 Y16.316
X1.085 Y16.316
G0 Z3.000
G0  X1.994 Y13.771
G0  Z3.000
G01 F400 Z0
G01 F400 Z-0.200
G01F400X1.786 Y13.727
X1.592 Y13.640
X1.420 Y13.515
X1.278 Y13.357
X1.171 Y13.173
X1.106 Y12.971
X1.084 Y12.760
X1.106 Y12.549
X1.171 Y12.347
X1.278 Y12.163
X1.420 Y12.005
X1.592 Y11.880
X1.786 Y11.793
X1.994 Y11.749
X2.206 Y11.749
X2.414 Y11.793
X2.608 Y11.880
X2.780 Y12.005
X2.861 Y12.095
X15.237 Y12.097
X15.320 Y12.005
X15.492 Y11.880
X15.686 Y11.793
X15.894 Y11.749
X16.106 Y11.749
X16.314 Y11.793
X16.508 Y11.880
X16.680 Y12.005
X16.822 Y12.163
X16.928 Y12.347
X16.994 Y12.549
X17.016 Y12.760
X16.994 Y12.971
X16.928 Y13.173
X16.822 Y13.357
X16.680 Y13.515
X16.508 Y13.640
X16.314 Y13.727
X16.106 Y13.771
X15.894 Y13.771
X15.686 Y13.727
X15.492 Y13.640
X15.320 Y13.515
X15.239 Y13.425
X2.863 Y13.423
X2.780 Y13.515
X2.608 Y13.640
X2.414 Y13.727
X2.206 Y13.771
X1.994 Y13.771
G0 Z3.000
G0  X1.994 Y11.231
G0  Z3.000
G01 F400 Z0
G01 F400 Z-0.200
G01F400X1.786 Y11.187
X1.592 Y11.100
X1.420 Y10.975
X1.278 Y10.817
X1.171 Y10.633
X1.106 Y10.431
X1.084 Y10.220
X1.106 Y10.009
X1.171 Y9.807
X1.278 Y9.623
X1.420 Y9.465
X1.592 Y9.340
X1.786 Y9.253
X1.994 Y9.209
X2.206 Y9.209
X2.414 Y9.253
X2.608 Y9.340
X2.780 Y9.465
X2.861 Y9.555
X15.237 Y9.557
X15.320 Y9.465
X15.492 Y9.340
X15.686 Y9.253
X15.894 Y9.209
X16.106 Y9.209
X16.314 Y9.253
X16.508 Y9.340
X16.680 Y9.465
X16.822 Y9.623
X16.928 Y9.807
X16.994 Y10.009
X17.016 Y10.220
X16.994 Y10.431
X16.928 Y10.633
X16.822 Y10.817
X16.680 Y10.975
X16.508 Y11.100
X16.314 Y11.187
X16.106 Y11.231
X15.894 Y11.231
X15.686 Y11.187
X15.492 Y11.100
X15.320 Y10.975
X15.239 Y10.885
X2.863 Y10.883
X2.780 Y10.975
X2.608 Y11.100
X2.414 Y11.187
X2.206 Y11.231
X1.994 Y11.231
G0 Z3.000
G0  X1.994 Y8.691
G0  Z3.000
G01 F400 Z0
G01 F400 Z-0.200
G01F400X1.786 Y8.647
X1.592 Y8.560
X1.420 Y8.435
X1.278 Y8.277
X1.171 Y8.093
X1.106 Y7.891
X1.084 Y7.680
X1.106 Y7.469
X1.171 Y7.267
X1.278 Y7.083
X1.420 Y6.925
X1.592 Y6.800
X1.786 Y6.713
X1.994 Y6.669
X2.206 Y6.669
X2.414 Y6.713
X2.608 Y6.800
X2.780 Y6.925
X2.861 Y7.015
X15.237 Y7.017
X15.320 Y6.925
X15.492 Y6.800
X15.686 Y6.713
X15.894 Y6.669
X16.106 Y6.669
X16.314 Y6.713
X16.508 Y6.800
X16.680 Y6.925
X16.822 Y7.083
X16.928 Y7.267
X16.994 Y7.469
X17.016 Y7.680
X16.994 Y7.891
X16.928 Y8.093
X16.822 Y8.277
X16.680 Y8.435
X16.508 Y8.560
X16.314 Y8.647
X16.106 Y8.691
X15.894 Y8.691
X15.686 Y8.647
X15.492 Y8.560
X15.320 Y8.435
X15.239 Y8.345
X2.863 Y8.343
X2.780 Y8.435
X2.608 Y8.560
X2.414 Y8.647
X2.206 Y8.691
X1.994 Y8.691
G0 Z3.000
G0  X1.994 Y6.151
G0  Z3.000
G01 F400 Z0
G01 F400 Z-0.200
G01F400X1.786 Y6.107
X1.592 Y6.020
X1.420 Y5.895
X1.278 Y5.737
X1.171 Y5.553
X1.106 Y5.351
X1.084 Y5.140
X1.106 Y4.929
X1.171 Y4.727
X1.278 Y4.543
X1.420 Y4.385
X1.592 Y4.260
X1.786 Y4.173
X1.994 Y4.129
X2.206 Y4.129
X2.414 Y4.173
X2.608 Y4.260
X2.780 Y4.385
X2.861 Y4.475
X15.237 Y4.477
X15.320 Y4.385
X15.492 Y4.260
X15.686 Y4.173
X15.894 Y4.129
X16.106 Y4.129
X16.314 Y4.173
X16.508 Y4.260
X16.680 Y4.385
X16.822 Y4.543
X16.928 Y4.727
X16.994 Y4.929
X17.016 Y5.140
X16.994 Y5.351
X16.928 Y5.553
X16.822 Y5.737
X16.680 Y5.895
X16.508 Y6.020
X16.314 Y6.107
X16.106 Y6.151
X15.894 Y6.151
X15.686 Y6.107
X15.492 Y6.020
X15.320 Y5.895
X15.239 Y5.805
X2.863 Y5.803
X2.780 Y5.895
X2.608 Y6.020
X2.414 Y6.107
X2.206 Y6.151
X1.994 Y6.151
G0 Z3.000
G0  X1.994 Y3.611
G0  Z3.000
G01 F400 Z0
G01 F400 Z-0.200
G01F400X1.786 Y3.567
X1.592 Y3.480
X1.420 Y3.355
X1.278 Y3.197
X1.171 Y3.013
X1.106 Y2.811
X1.084 Y2.600
X1.106 Y2.389
X1.171 Y2.187
X1.278 Y2.003
X1.420 Y1.845
X1.592 Y1.720
X1.786 Y1.633
X1.994 Y1.589
X2.206 Y1.589
X2.414 Y1.633
X2.608 Y1.720
X2.780 Y1.845
X2.861 Y1.935
X15.237 Y1.937
X15.320 Y1.845
X15.492 Y1.720
X15.686 Y1.633
X15.894 Y1.589
X16.106 Y1.589
X16.314 Y1.633
X16.508 Y1.720
X16.680 Y1.845
X16.822 Y2.003
X16.928 Y2.187
X16.994 Y2.389
X17.016 Y2.600
X16.994 Y2.811
X16.928 Y3.013
X16.822 Y3.197
X16.680 Y3.355
X16.508 Y3.480
X16.314 Y3.567
X16.106 Y3.611
X15.894 Y3.611
X15.686 Y3.567
X15.492 Y3.480
X15.320 Y3.355
X15.239 Y3.265
X2.863 Y3.263
X2.780 Y3.355
X2.608 Y3.480
X2.414 Y3.567
X2.206 Y3.611
X1.994 Y3.611
G0 Z3.000
G0  X0.787 Y16.613
G0  Z3.000
G01 F400 Z0
G01 F400 Z-0.200
G01F400X0.787 Y13.987
X1.638 Y13.987
X1.442 Y13.900
X1.220 Y13.738
X1.035 Y13.533
X0.898 Y13.295
X0.813 Y13.034
X0.784 Y12.760
X0.813 Y12.486
X0.898 Y12.225
X1.035 Y11.987
X1.220 Y11.782
X1.442 Y11.620
X1.693 Y11.509
X1.781 Y11.490
X1.693 Y11.471
X1.442 Y11.360
X1.220 Y11.198
X1.035 Y10.993
X0.898 Y10.755
X0.813 Y10.494
X0.784 Y10.220
X0.813 Y9.946
X0.898 Y9.685
X1.035 Y9.447
X1.220 Y9.242
X1.442 Y9.080
X1.693 Y8.969
X1.781 Y8.950
X1.693 Y8.931
X1.442 Y8.820
X1.220 Y8.658
X1.035 Y8.453
X0.898 Y8.215
X0.813 Y7.954
X0.784 Y7.680
X0.813 Y7.406
X0.898 Y7.145
X1.035 Y6.907
X1.220 Y6.702
X1.442 Y6.540
X1.693 Y6.429
X1.781 Y6.410
X1.693 Y6.391
X1.442 Y6.280
X1.220 Y6.118
X1.035 Y5.913
X0.898 Y5.675
X0.813 Y5.414
X0.784 Y5.140
X0.813 Y4.866
X0.898 Y4.605
X1.035 Y4.367
X1.220 Y4.162
X1.442 Y4.000
X1.693 Y3.889
X1.781 Y3.870
X1.693 Y3.851
X1.442 Y3.740
X1.220 Y3.578
X1.035 Y3.373
X0.898 Y3.135
X0.813 Y2.874
X0.784 Y2.600
X0.813 Y2.326
X0.898 Y2.065
X1.035 Y1.827
X1.220 Y1.622
X1.442 Y1.460
X1.693 Y1.349
X1.963 Y1.291
X2.238 Y1.291
X2.507 Y1.349
X2.758 Y1.460
X2.981 Y1.622
X2.994 Y1.637
X15.104 Y1.640
X15.119 Y1.623
X15.342 Y1.460
X15.593 Y1.349
X15.863 Y1.291
X16.137 Y1.291
X16.407 Y1.349
X16.658 Y1.460
X16.881 Y1.622
X17.065 Y1.827
X17.202 Y2.065
X17.287 Y2.326
X17.316 Y2.600
X17.287 Y2.874
X17.202 Y3.135
X17.065 Y3.373
X16.881 Y3.578
X16.658 Y3.740
X16.407 Y3.851
X16.319 Y3.870
X16.407 Y3.889
X16.658 Y4.000
X16.881 Y4.162
X17.065 Y4.367
X17.202 Y4.605
X17.287 Y4.866
X17.316 Y5.140
X17.287 Y5.414
X17.202 Y5.675
X17.065 Y5.913
X16.881 Y6.118
X16.658 Y6.280
X16.407 Y6.391
X16.319 Y6.410
X16.407 Y6.429
X16.658 Y6.540
X16.881 Y6.702
X17.065 Y6.907
X17.202 Y7.145
X17.287 Y7.406
X17.316 Y7.680
X17.287 Y7.954
X17.202 Y8.215
X17.065 Y8.453
X16.881 Y8.658
X16.658 Y8.820
X16.407 Y8.931
X16.319 Y8.950
X16.407 Y8.969
X16.658 Y9.080
X16.881 Y9.242
X17.065 Y9.447
X17.202 Y9.685
X17.287 Y9.946
X17.316 Y10.220
X17.287 Y10.494
X17.202 Y10.755
X17.065 Y10.993
X16.881 Y11.198
X16.658 Y11.360
X16.407 Y11.471
X16.319 Y11.490
X16.407 Y11.509
X16.658 Y11.620
X16.881 Y11.782
X17.065 Y11.987
X17.202 Y12.225
X17.287 Y12.486
X17.316 Y12.760
X17.287 Y13.034
X17.202 Y13.295
X17.065 Y13.533
X16.881 Y13.738
X16.658 Y13.900
X16.462 Y13.987
X17.313 Y13.987
X17.313 Y16.613
X14.687 Y16.613
X14.687 Y16.261
X3.413 Y16.261
X3.413 Y16.613
X0.787 Y16.613
G0 Z3.000
G0  X3.413 Y14.340
G0  Z3.000
G01 F400 Z0
G01 F400 Z-0.200
G01F400X14.687 Y14.340
X14.687 Y13.987
X15.538 Y13.987
X15.342 Y13.900
X15.120 Y13.738
X15.106 Y13.723
X2.996 Y13.721
X2.981 Y13.738
X2.758 Y13.900
X2.562 Y13.987
X3.413 Y13.987
X3.413 Y14.340
G0 Z3.000
G0  X15.104 Y11.800
G0  Z3.000
G01 F400 Z0
G01 F400 Z-0.200
G01F400X15.119 Y11.783
X15.342 Y11.620
X15.593 Y11.509
X15.681 Y11.490
X15.593 Y11.471
X15.342 Y11.360
X15.120 Y11.198
X15.106 Y11.183
X2.996 Y11.181
X2.981 Y11.197
X2.758 Y11.360
X2.507 Y11.471
X2.419 Y11.490
X2.507 Y11.509
X2.758 Y11.620
X2.981 Y11.782
X2.994 Y11.797
X15.104 Y11.800
G0 Z3.000
G0  X15.104 Y9.260
G0  Z3.000
G01 F400 Z0
G01 F400 Z-0.200
G01F400X15.119 Y9.242
X15.342 Y9.080
X15.593 Y8.969
X15.681 Y8.950
X15.593 Y8.931
X15.342 Y8.820
X15.120 Y8.658
X15.106 Y8.643
X2.996 Y8.641
X2.981 Y8.658
X2.758 Y8.820
X2.507 Y8.931
X2.419 Y8.950
X2.507 Y8.969
X2.758 Y9.080
X2.981 Y9.242
X2.994 Y9.257
X15.104 Y9.260
G0 Z3.000
G0  X15.104 Y6.720
G0  Z3.000
G01 F400 Z0
G01 F400 Z-0.200
G01F400X15.119 Y6.703
X15.342 Y6.540
X15.593 Y6.429
X15.681 Y6.410
X15.593 Y6.391
X15.342 Y6.280
X15.120 Y6.118
X15.106 Y6.103
X2.996 Y6.101
X2.981 Y6.118
X2.758 Y6.280
X2.507 Y6.391
X2.419 Y6.410
X2.507 Y6.429
X2.758 Y6.540
X2.981 Y6.702
X2.994 Y6.717
X15.104 Y6.720
G0 Z3.000
G0  X15.104 Y4.179
G0  Z3.000
G01 F400 Z0
G01 F400 Z-0.200
G01F400X15.119 Y4.163
X15.342 Y4.000
X15.593 Y3.889
X15.681 Y3.870
X15.593 Y3.851
X15.342 Y3.740
X15.120 Y3.578
X15.106 Y3.563
X2.996 Y3.561
X2.981 Y3.578
X2.758 Y3.740
X2.507 Y3.851
X2.419 Y3.870
X2.507 Y3.889
X2.758 Y4.000
X2.981 Y4.162
X2.994 Y4.177
X15.104 Y4.179
G0 Z3.000
M05
(  )
T608 M06
( Drilling )
M03 S10000
G00 X16.000 Y15.300
G0  Z3.000
G01 F120.0 Z-1.780
G00 Z3.000
G00 X16.000 Y12.760
G0  Z3.000
G01 F120.0 Z-1.780
G00 Z3.000
G00 X16.000 Y10.220
G0  Z3.000
G01 F120.0 Z-1.780
G00 Z3.000
G00 X16.000 Y7.680
G0  Z3.000
G01 F120.0 Z-1.780
G00 Z3.000
G00 X16.000 Y5.140
G0  Z3.000
G01 F120.0 Z-1.780
G00 Z3.000
G00 X16.000 Y2.600
G0  Z3.000
G01 F120.0 Z-1.780
G00 Z3.000
G00 X2.100 Y15.300
G0  Z3.000
G01 F120.0 Z-1.780
G00 Z3.000
G00 X2.100 Y12.760
G0  Z3.000
G01 F120.0 Z-1.780
G00 Z3.000
G00 X2.100 Y10.220
G0  Z3.000
G01 F120.0 Z-1.780
G00 Z3.000
G00 X2.100 Y7.680
G0  Z3.000
G01 F120.0 Z-1.780
G00 Z3.000
G00 X2.100 Y5.140
G0  Z3.000
G01 F120.0 Z-1.780
G00 Z3.000
G00 X2.100 Y2.600
G0  Z3.000
G01 F120.0 Z-1.780
G00 Z3.000
M05
(  )
T102 M06
( Routing )
M03 S10000
G0  X-1.588 Y19.588
G0  Z3.000
G01 F200 Z0
G01 F200 Z-0.790
G01F200X-1.588 Y-1.588
X19.588 Y-1.588
X19.588 Y19.588
X-1.588 Y19.588
G0 Z3.000
M03 S10000
G0  X-1.588 Y19.588
G0  Z3.000
G01 F200 Z0
G01 F200 Z-1.580
G01F200X-1.588 Y-1.588
X19.588 Y-1.588
X19.588 Y19.588
X-1.588 Y19.588
G0 Z3.000
G00 Z3.000
M05
M30
%