( Generated by Carbide Copper )
( Material Size )
( X= 32.000, Y= 12.000, Z= 1.580 )
()
G17
G21
G54
G90
M05
(  )
T302 M06
( Contour )
M03 S10000
G0  X0.985 Y10.636
G0  Z3.000
G01 F400 Z0
G01 F400 Z-0.200
G01F400X0.985 Y8.604
X3.016 Y8.604
X3.016 Y8.957
X4.985 Y8.957
X4.985 Y8.604
X7.016 Y8.604
X7.016 Y8.957
X8.985 Y8.957
X8.985 Y8.604
X11.016 Y8.604
X11.016 Y8.957
X12.985 Y8.957
X12.985 Y8.604
X15.016 Y8.604
X15.016 Y8.957
X16.985 Y8.957
X16.985 Y8.604
X19.015 Y8.604
X19.015 Y8.957
X20.985 Y8.957
X20.985 Y8.604
X23.015 Y8.604
X23.015 Y8.957
X24.985 Y8.957
X24.985 Y8.604
X27.016 Y8.604
X27.016 Y8.957
X28.985 Y8.957
X28.985 Y8.604
X31.016 Y8.604
X31.016 Y10.636
X28.985 Y10.636
X28.985 Y10.283
X27.016 Y10.283
X27.016 Y10.636
X24.985 Y10.636
X24.985 Y10.283
X23.015 Y10.283
X23.015 Y10.636
X20.985 Y10.636
X20.985 Y10.283
X19.015 Y10.283
X19.015 Y10.636
X16.985 Y10.636
X16.985 Y10.283
X15.016 Y10.283
X15.016 Y10.636
X12.985 Y10.636
X12.985 Y10.283
X11.016 Y10.283
X11.016 Y10.636
X8.985 Y10.636
X8.985 Y10.283
X7.016 Y10.283
X7.016 Y10.636
X4.985 Y10.636
X4.985 Y10.283
X3.016 Y10.283
X3.016 Y10.636
X0.985 Y10.636
G0 Z3.000
G0  X1.894 Y8.091
G0  Z3.000
G01 F400 Z0
G01 F400 Z-0.200
G01F400X1.686 Y8.047
X1.492 Y7.960
X1.320 Y7.835
X1.178 Y7.677
X1.072 Y7.493
X1.006 Y7.291
X0.984 Y7.080
X1.006 Y6.869
X1.072 Y6.667
X1.178 Y6.483
X1.320 Y6.325
X1.492 Y6.200
X1.686 Y6.113
X1.894 Y6.069
X2.106 Y6.069
X2.314 Y6.113
X2.508 Y6.200
X2.680 Y6.325
X2.761 Y6.415
X5.237 Y6.417
X5.320 Y6.325
X5.492 Y6.200
X5.686 Y6.113
X5.894 Y6.069
X6.106 Y6.069
X6.314 Y6.113
X6.508 Y6.200
X6.680 Y6.325
X6.761 Y6.415
X9.237 Y6.417
X9.320 Y6.325
X9.492 Y6.200
X9.686 Y6.113
X9.894 Y6.069
X10.106 Y6.069
X10.314 Y6.113
X10.508 Y6.200
X10.680 Y6.325
X10.761 Y6.415
X13.237 Y6.417
X13.320 Y6.325
X13.492 Y6.200
X13.686 Y6.113
X13.894 Y6.069
X14.106 Y6.069
X14.314 Y6.113
X14.508 Y6.200
X14.680 Y6.325
X14.761 Y6.415
X17.237 Y6.417
X17.320 Y6.325
X17.492 Y6.200
X17.686 Y6.113
X17.894 Y6.069
X18.106 Y6.069
X18.314 Y6.113
X18.508 Y6.200
X18.680 Y6.325
X18.761 Y6.415
X21.237 Y6.417
X21.320 Y6.325
X21.492 Y6.200
X21.686 Y6.113
X21.894 Y6.069
X22.106 Y6.069
X22.314 Y6.113
X22.508 Y6.200
X22.680 Y6.325
X22.761 Y6.415
X25.237 Y6.417
X25.320 Y6.325
X25.492 Y6.200
X25.686 Y6.113
X25.894 Y6.069
X26.106 Y6.069
X26.314 Y6.113
X26.508 Y6.200
X26.680 Y6.325
X26.761 Y6.415
X29.237 Y6.417
X29.320 Y6.325
X29.492 Y6.200
X29.686 Y6.113
X29.894 Y6.069
X30.106 Y6.069
X30.314 Y6.113
X30.508 Y6.200
X30.680 Y6.325
X30.822 Y6.483
X30.929 Y6.667
X30.994 Y6.869
X31.016 Y7.080
X30.994 Y7.291
X30.929 Y7.493
X30.822 Y7.677
X30.680 Y7.835
X30.508 Y7.960
X30.314 Y8.047
X30.106 Y8.091
X29.894 Y8.091
X29.686 Y8.047
X29.492 Y7.960
X29.320 Y7.835
X29.239 Y7.745
X26.763 Y7.743
X26.680 Y7.835
X26.508 Y7.960
X26.314 Y8.047
X26.106 Y8.091
X25.894 Y8.091
X25.686 Y8.047
X25.492 Y7.960
X25.320 Y7.835
X25.239 Y7.745
X22.763 Y7.743
X22.680 Y7.835
X22.508 Y7.960
X22.314 Y8.047
X22.106 Y8.091
X21.894 Y8.091
X21.686 Y8.047
X21.492 Y7.960
X21.320 Y7.835
X21.239 Y7.745
X18.763 Y7.743
X18.680 Y7.835
X18.508 Y7.960
X18.314 Y8.047
X18.106 Y8.091
X17.894 Y8.091
X17.686 Y8.047
X17.492 Y7.960
X17.320 Y7.835
X17.239 Y7.745
X14.763 Y7.743
X14.680 Y7.835
X14.508 Y7.960
X14.314 Y8.047
X14.106 Y8.091
X13.894 Y8.091
X13.686 Y8.047
X13.492 Y7.960
X13.320 Y7.835
X13.239 Y7.745
X10.763 Y7.743
X10.680 Y7.835
X10.508 Y7.960
X10.314 Y8.047
X10.106 Y8.091
X9.894 Y8.091
X9.686 Y8.047
X9.492 Y7.960
X9.320 Y7.835
X9.239 Y7.745
X6.763 Y7.743
X6.680 Y7.835
X6.508 Y7.960
X6.314 Y8.047
X6.106 Y8.091
X5.894 Y8.091
X5.686 Y8.047
X5.492 Y7.960
X5.320 Y7.835
X5.239 Y7.745
X2.763 Y7.743
X2.680 Y7.835
X2.508 Y7.960
X2.314 Y8.047
X2.106 Y8.091
X1.894 Y8.091
G0 Z3.000
G0  X1.894 Y5.551
G0  Z3.000
G01 F400 Z0
G01 F400 Z-0.200
G01F400X1.686 Y5.507
X1.492 Y5.420
X1.320 Y5.295
X1.178 Y5.137
X1.072 Y4.953
X1.006 Y4.751
X0.984 Y4.540
X1.006 Y4.329
X1.072 Y4.127
X1.178 Y3.943
X1.320 Y3.785
X1.492 Y3.660
X1.686 Y3.573
X1.894 Y3.529
X2.106 Y3.529
X2.314 Y3.573
X2.508 Y3.660
X2.680 Y3.785
X2.761 Y3.875
X5.237 Y3.877
X5.320 Y3.785
X5.492 Y3.660
X5.686 Y3.573
X5.894 Y3.529
X6.106 Y3.529
X6.314 Y3.573
X6.508 Y3.660
X6.680 Y3.785
X6.761 Y3.875
X9.237 Y3.877
X9.320 Y3.785
X9.492 Y3.660
X9.686 Y3.573
X9.894 Y3.529
X10.106 Y3.529
X10.314 Y3.573
X10.508 Y3.660
X10.680 Y3.785
X10.761 Y3.875
X13.237 Y3.877
X13.320 Y3.785
X13.492 Y3.660
X13.686 Y3.573
X13.894 Y3.529
X14.106 Y3.529
X14.314 Y3.573
X14.508 Y3.660
X14.680 Y3.785
X14.761 Y3.875
X17.237 Y3.877
X17.320 Y3.785
X17.492 Y3.660
X17.686 Y3.573
X17.894 Y3.529
X18.106 Y3.529
X18.314 Y3.573
X18.508 Y3.660
X18.680 Y3.785
X18.761 Y3.875
X21.237 Y3.877
X21.320 Y3.785
X21.492 Y3.660
X21.686 Y3.573
X21.894 Y3.529
X22.106 Y3.529
X22.314 Y3.573
X22.508 Y3.660
X22.680 Y3.785
X22.761 Y3.875
X25.237 Y3.877
X25.320 Y3.785
X25.492 Y3.660
X25.686 Y3.573
X25.894 Y3.529
X26.106 Y3.529
X26.314 Y3.573
X26.508 Y3.660
X26.680 Y3.785
X26.761 Y3.875
X29.237 Y3.877
X29.320 Y3.785
X29.492 Y3.660
X29.686 Y3.573
X29.894 Y3.529
X30.106 Y3.529
X30.314 Y3.573
X30.508 Y3.660
X30.680 Y3.785
X30.822 Y3.943
X30.929 Y4.127
X30.994 Y4.329
X31.016 Y4.540
X30.994 Y4.751
X30.929 Y4.953
X30.822 Y5.137
X30.680 Y5.295
X30.508 Y5.420
X30.314 Y5.507
X30.106 Y5.551
X29.894 Y5.551
X29.686 Y5.507
X29.492 Y5.420
X29.320 Y5.295
X29.239 Y5.205
X26.763 Y5.203
X26.680 Y5.295
X26.508 Y5.420
X26.314 Y5.507
X26.106 Y5.551
X25.894 Y5.551
X25.686 Y5.507
X25.492 Y5.420
X25.320 Y5.295
X25.239 Y5.205
X22.763 Y5.203
X22.680 Y5.295
X22.508 Y5.420
X22.314 Y5.507
X22.106 Y5.551
X21.894 Y5.551
X21.686 Y5.507
X21.492 Y5.420
X21.320 Y5.295
X21.239 Y5.205
X18.763 Y5.203
X18.680 Y5.295
X18.508 Y5.420
X18.314 Y5.507
X18.106 Y5.551
X17.894 Y5.551
X17.686 Y5.507
X17.492 Y5.420
X17.320 Y5.295
X17.239 Y5.205
X14.763 Y5.203
X14.680 Y5.295
X14.508 Y5.420
X14.314 Y5.507
X14.106 Y5.551
X13.894 Y5.551
X13.686 Y5.507
X13.492 Y5.420
X13.320 Y5.295
X13.239 Y5.205
X10.763 Y5.203
X10.680 Y5.295
X10.508 Y5.420
X10.314 Y5.507
X10.106 Y5.551
X9.894 Y5.551
X9.686 Y5.507
X9.492 Y5.420
X9.320 Y5.295
X9.239 Y5.205
X6.763 Y5.203
X6.680 Y5.295
X6.508 Y5.420
X6.314 Y5.507
X6.106 Y5.551
X5.894 Y5.551
X5.686 Y5.507
X5.492 Y5.420
X5.320 Y5.295
X5.239 Y5.205
X2.763 Y5.203
X2.680 Y5.295
X2.508 Y5.420
X2.314 Y5.507
X2.106 Y5.551
X1.894 Y5.551
G0 Z3.000
G0  X1.894 Y3.011
G0  Z3.000
G01 F400 Z0
G01 F400 Z-0.200
G01F400X1.686 Y2.967
X1.492 Y2.880
X1.320 Y2.755
X1.178 Y2.597
X1.072 Y2.413
X1.006 Y2.211
X0.984 Y2.000
X1.006 Y1.789
X1.072 Y1.587
X1.178 Y1.403
X1.320 Y1.245
X1.492 Y1.120
X1.686 Y1.033
X1.894 Y0.989
X2.106 Y0.989
X2.314 Y1.033
X2.508 Y1.120
X2.680 Y1.245
X2.761 Y1.335
X5.237 Y1.337
X5.320 Y1.245
X5.492 Y1.120
X5.686 Y1.033
X5.894 Y0.989
X6.106 Y0.989
X6.314 Y1.033
X6.508 Y1.120
X6.680 Y1.245
X6.761 Y1.335
X9.237 Y1.337
X9.320 Y1.245
X9.492 Y1.120
X9.686 Y1.033
X9.894 Y0.989
X10.106 Y0.989
X10.314 Y1.033
X10.508 Y1.120
X10.680 Y1.245
X10.761 Y1.335
X13.237 Y1.337
X13.320 Y1.245
X13.492 Y1.120
X13.686 Y1.033
X13.894 Y0.989
X14.106 Y0.989
X14.314 Y1.033
X14.508 Y1.120
X14.680 Y1.245
X14.761 Y1.335
X17.237 Y1.337
X17.320 Y1.245
X17.492 Y1.120
X17.686 Y1.033
X17.894 Y0.989
X18.106 Y0.989
X18.314 Y1.033
X18.508 Y1.120
X18.680 Y1.245
X18.761 Y1.335
X21.237 Y1.337
X21.320 Y1.245
X21.492 Y1.120
X21.686 Y1.033
X21.894 Y0.989
X22.106 Y0.989
X22.314 Y1.033
X22.508 Y1.120
X22.680 Y1.245
X22.761 Y1.335
X25.237 Y1.337
X25.320 Y1.245
X25.492 Y1.120
X25.686 Y1.033
X25.894 Y0.989
X26.106 Y0.989
X26.314 Y1.033
X26.508 Y1.120
X26.680 Y1.245
X26.761 Y1.335
X29.237 Y1.337
X29.320 Y1.245
X29.492 Y1.120
X29.686 Y1.033
X29.894 Y0.989
X30.106 Y0.989
X30.314 Y1.033
X30.508 Y1.120
X30.680 Y1.245
X30.822 Y1.403
X30.929 Y1.587
X30.994 Y1.789
X31.016 Y2.000
X30.994 Y2.211
X30.929 Y2.413
X30.822 Y2.597
X30.680 Y2.755
X30.508 Y2.880
X30.314 Y2.967
X30.106 Y3.011
X29.894 Y3.011
X29.686 Y2.967
X29.492 Y2.880
X29.320 Y2.755
X29.239 Y2.665
X26.763 Y2.663
X26.680 Y2.755
X26.508 Y2.880
X26.314 Y2.967
X26.106 Y3.011
X25.894 Y3.011
X25.686 Y2.967
X25.492 Y2.880
X25.320 Y2.755
X25.239 Y2.665
X22.763 Y2.663
X22.680 Y2.755
X22.508 Y2.880
X22.314 Y2.967
X22.106 Y3.011
X21.894 Y3.011
X21.686 Y2.967
X21.492 Y2.880
X21.320 Y2.755
X21.239 Y2.665
X18.763 Y2.663
X18.680 Y2.755
X18.508 Y2.880
X18.314 Y2.967
X18.106 Y3.011
X17.894 Y3.011
X17.686 Y2.967
X17.492 Y2.880
X17.320 Y2.755
X17.239 Y2.665
X14.763 Y2.663
X14.680 Y2.755
X14.508 Y2.880
X14.314 Y2.967
X14.106 Y3.011
X13.894 Y3.011
X13.686 Y2.967
X13.492 Y2.880
X13.320 Y2.755
X13.239 Y2.665
X10.763 Y2.663
X10.680 Y2.755
X10.508 Y2.880
X10.314 Y2.967
X10.106 Y3.011
X9.894 Y3.011
X9.686 Y2.967
X9.492 Y2.880
X9.320 Y2.755
X9.239 Y2.665
X6.763 Y2.663
X6.680 Y2.755
X6.508 Y2.880
X6.314 Y2.967
X6.106 Y3.011
X5.894 Y3.011
X5.686 Y2.967
X5.492 Y2.880
X5.320 Y2.755
X5.239 Y2.665
X2.763 Y2.663
X2.680 Y2.755
X2.508 Y2.880
X2.314 Y2.967
X2.106 Y3.011
X1.894 Y3.011
G0 Z3.000
G0  X0.687 Y10.933
G0  Z3.000
G01 F400 Z0
G01 F400 Z-0.200
G01F400X0.687 Y8.307
X1.538 Y8.307
X1.342 Y8.220
X1.120 Y8.058
X0.935 Y7.853
X0.798 Y7.615
X0.713 Y7.354
X0.684 Y7.080
X0.713 Y6.806
X0.798 Y6.545
X0.935 Y6.307
X1.120 Y6.102
X1.342 Y5.940
X1.593 Y5.829
X1.681 Y5.810
X1.593 Y5.791
X1.342 Y5.680
X1.120 Y5.518
X0.935 Y5.313
X0.798 Y5.075
X0.713 Y4.814
X0.684 Y4.540
X0.713 Y4.266
X0.798 Y4.005
X0.935 Y3.767
X1.120 Y3.562
X1.342 Y3.400
X1.593 Y3.289
X1.681 Y3.270
X1.593 Y3.251
X1.342 Y3.140
X1.120 Y2.978
X0.935 Y2.773
X0.798 Y2.535
X0.713 Y2.274
X0.684 Y2.000
X0.713 Y1.726
X0.798 Y1.465
X0.935 Y1.227
X1.120 Y1.022
X1.342 Y0.860
X1.593 Y0.749
X1.863 Y0.691
X2.138 Y0.691
X2.407 Y0.749
X2.658 Y0.860
X2.881 Y1.022
X2.894 Y1.037
X5.104 Y1.039
X5.119 Y1.022
X5.342 Y0.860
X5.593 Y0.749
X5.863 Y0.691
X6.138 Y0.691
X6.407 Y0.749
X6.658 Y0.860
X6.881 Y1.022
X6.894 Y1.037
X9.104 Y1.039
X9.119 Y1.022
X9.342 Y0.860
X9.593 Y0.749
X9.863 Y0.691
X10.138 Y0.691
X10.407 Y0.749
X10.658 Y0.860
X10.881 Y1.022
X10.894 Y1.037
X13.104 Y1.039
X13.119 Y1.022
X13.342 Y0.860
X13.593 Y0.749
X13.863 Y0.691
X14.138 Y0.691
X14.407 Y0.749
X14.658 Y0.860
X14.881 Y1.022
X14.894 Y1.037
X17.104 Y1.039
X17.119 Y1.022
X17.342 Y0.860
X17.593 Y0.749
X17.863 Y0.691
X18.137 Y0.691
X18.407 Y0.749
X18.658 Y0.860
X18.881 Y1.022
X18.894 Y1.037
X21.104 Y1.039
X21.119 Y1.022
X21.342 Y0.860
X21.593 Y0.749
X21.863 Y0.691
X22.137 Y0.691
X22.407 Y0.749
X22.658 Y0.860
X22.881 Y1.022
X22.894 Y1.037
X25.104 Y1.039
X25.119 Y1.022
X25.342 Y0.860
X25.593 Y0.749
X25.863 Y0.691
X26.138 Y0.691
X26.407 Y0.749
X26.658 Y0.860
X26.881 Y1.022
X26.894 Y1.037
X29.104 Y1.039
X29.119 Y1.022
X29.342 Y0.860
X29.593 Y0.749
X29.863 Y0.691
X30.138 Y0.691
X30.407 Y0.749
X30.658 Y0.860
X30.881 Y1.022
X31.065 Y1.227
X31.202 Y1.465
X31.287 Y1.726
X31.316 Y2.000
X31.287 Y2.274
X31.202 Y2.535
X31.065 Y2.773
X30.881 Y2.978
X30.658 Y3.140
X30.407 Y3.251
X30.319 Y3.270
X30.407 Y3.289
X30.658 Y3.400
X30.881 Y3.562
X31.065 Y3.767
X31.202 Y4.005
X31.287 Y4.266
X31.316 Y4.540
X31.287 Y4.814
X31.202 Y5.075
X31.065 Y5.313
X30.881 Y5.518
X30.658 Y5.680
X30.407 Y5.791
X30.319 Y5.810
X30.407 Y5.829
X30.658 Y5.940
X30.881 Y6.102
X31.065 Y6.307
X31.202 Y6.545
X31.287 Y6.806
X31.316 Y7.080
X31.287 Y7.354
X31.202 Y7.615
X31.065 Y7.853
X30.881 Y8.058
X30.658 Y8.220
X30.462 Y8.307
X31.313 Y8.307
X31.313 Y10.933
X28.687 Y10.933
X28.687 Y10.581
X27.313 Y10.581
X27.313 Y10.933
X24.687 Y10.933
X24.687 Y10.581
X23.313 Y10.581
X23.313 Y10.933
X20.687 Y10.933
X20.687 Y10.581
X19.313 Y10.581
X19.313 Y10.933
X16.687 Y10.933
X16.687 Y10.581
X15.313 Y10.581
X15.313 Y10.933
X12.687 Y10.933
X12.687 Y10.581
X11.313 Y10.581
X11.313 Y10.933
X8.687 Y10.933
X8.687 Y10.581
X7.313 Y10.581
X7.313 Y10.933
X4.687 Y10.933
X4.687 Y10.581
X3.313 Y10.581
X3.313 Y10.933
X0.687 Y10.933
G0 Z3.000
G0  X27.313 Y8.659
G0  Z3.000
G01 F400 Z0
G01 F400 Z-0.200
G01F400X28.687 Y8.659
X28.687 Y8.307
X29.538 Y8.307
X29.342 Y8.220
X29.119 Y8.058
X29.106 Y8.043
X26.896 Y8.041
X26.881 Y8.058
X26.658 Y8.220
X26.462 Y8.307
X27.313 Y8.307
X27.313 Y8.659
G0 Z3.000
G0  X23.313 Y8.659
G0  Z3.000
G01 F400 Z0
G01 F400 Z-0.200
G01F400X24.687 Y8.659
X24.687 Y8.307
X25.538 Y8.307
X25.342 Y8.220
X25.119 Y8.058
X25.106 Y8.043
X22.896 Y8.041
X22.881 Y8.058
X22.658 Y8.220
X22.462 Y8.307
X23.313 Y8.307
X23.313 Y8.659
G0 Z3.000
G0  X19.313 Y8.659
G0  Z3.000
G01 F400 Z0
G01 F400 Z-0.200
G01F400X20.687 Y8.659
X20.687 Y8.307
X21.538 Y8.307
X21.342 Y8.220
X21.119 Y8.058
X21.106 Y8.043
X18.896 Y8.041
X18.881 Y8.058
X18.658 Y8.220
X18.462 Y8.307
X19.313 Y8.307
X19.313 Y8.659
G0 Z3.000
G0  X15.313 Y8.659
G0  Z3.000
G01 F400 Z0
G01 F400 Z-0.200
G01F400X16.687 Y8.659
X16.687 Y8.307
X17.538 Y8.307
X17.342 Y8.220
X17.119 Y8.058
X17.106 Y8.043
X14.896 Y8.041
X14.881 Y8.058
X14.658 Y8.220
X14.462 Y8.307
X15.313 Y8.307
X15.313 Y8.659
G0 Z3.000
G0  X11.313 Y8.659
G0  Z3.000
G01 F400 Z0
G01 F400 Z-0.200
G01F400X12.687 Y8.659
X12.687 Y8.307
X13.538 Y8.307
X13.342 Y8.220
X13.119 Y8.058
X13.106 Y8.043
X10.896 Y8.041
X10.881 Y8.058
X10.658 Y8.220
X10.462 Y8.307
X11.313 Y8.307
X11.313 Y8.659
G0 Z3.000
G0  X7.313 Y8.659
G0  Z3.000
G01 F400 Z0
G01 F400 Z-0.200
G01F400X8.687 Y8.659
X8.687 Y8.307
X9.538 Y8.307
X9.342 Y8.220
X9.119 Y8.058
X9.106 Y8.043
X6.896 Y8.041
X6.881 Y8.058
X6.658 Y8.220
X6.462 Y8.307
X7.313 Y8.307
X7.313 Y8.659
G0 Z3.000
G0  X3.313 Y8.659
G0  Z3.000
G01 F400 Z0
G01 F400 Z-0.200
G01F400X4.687 Y8.659
X4.687 Y8.307
X5.538 Y8.307
X5.342 Y8.220
X5.119 Y8.058
X5.106 Y8.043
X2.896 Y8.041
X2.881 Y8.058
X2.658 Y8.220
X2.462 Y8.307
X3.313 Y8.307
X3.313 Y8.659
G0 Z3.000
G0  X5.104 Y6.119
G0  Z3.000
G01 F400 Z0
G01 F400 Z-0.200
G01F400X5.119 Y6.103
X5.342 Y5.940
X5.593 Y5.829
X5.681 Y5.810
X5.593 Y5.791
X5.342 Y5.680
X5.119 Y5.518
X5.106 Y5.503
X2.896 Y5.501
X2.881 Y5.518
X2.658 Y5.680
X2.407 Y5.791
X2.319 Y5.810
X2.407 Y5.829
X2.658 Y5.940
X2.881 Y6.102
X2.894 Y6.117
X5.104 Y6.119
G0 Z3.000
G0  X9.104 Y6.119
G0  Z3.000
G01 F400 Z0
G01 F400 Z-0.200
G01F400X9.119 Y6.103
X9.342 Y5.940
X9.593 Y5.829
X9.681 Y5.810
X9.593 Y5.791
X9.342 Y5.680
X9.119 Y5.518
X9.106 Y5.503
X6.896 Y5.501
X6.881 Y5.518
X6.658 Y5.680
X6.407 Y5.791
X6.319 Y5.810
X6.407 Y5.829
X6.658 Y5.940
X6.881 Y6.102
X6.894 Y6.117
X9.104 Y6.119
G0 Z3.000
G0  X13.104 Y6.119
G0  Z3.000
G01 F400 Z0
G01 F400 Z-0.200
G01F400X13.119 Y6.103
X13.342 Y5.940
X13.593 Y5.829
X13.681 Y5.810
X13.593 Y5.791
X13.342 Y5.680
X13.119 Y5.518
X13.106 Y5.503
X10.896 Y5.501
X10.881 Y5.518
X10.658 Y5.680
X10.407 Y5.791
X10.319 Y5.810
X10.407 Y5.829
X10.658 Y5.940
X10.881 Y6.102
X10.894 Y6.117
X13.104 Y6.119
G0 Z3.000
G0  X17.104 Y6.119
G0  Z3.000
G01 F400 Z0
G01 F400 Z-0.200
G01F400X17.119 Y6.103
X17.342 Y5.940
X17.593 Y5.829
X17.681 Y5.810
X17.593 Y5.791
X17.342 Y5.680
X17.119 Y5.518
X17.106 Y5.503
X14.896 Y5.501
X14.881 Y5.518
X14.658 Y5.680
X14.407 Y5.791
X14.319 Y5.810
X14.407 Y5.829
X14.658 Y5.940
X14.881 Y6.102
X14.894 Y6.117
X17.104 Y6.119
G0 Z3.000
G0  X21.104 Y6.119
G0  Z3.000
G01 F400 Z0
G01 F400 Z-0.200
G01F400X21.119 Y6.103
X21.342 Y5.940
X21.593 Y5.829
X21.681 Y5.810
X21.593 Y5.791
X21.342 Y5.680
X21.119 Y5.518
X21.106 Y5.503
X18.896 Y5.501
X18.881 Y5.518
X18.658 Y5.680
X18.407 Y5.791
X18.319 Y5.810
X18.407 Y5.829
X18.658 Y5.940
X18.881 Y6.102
X18.894 Y6.117
X21.104 Y6.119
G0 Z3.000
G0  X25.104 Y6.119
G0  Z3.000
G01 F400 Z0
G01 F400 Z-0.200
G01F400X25.119 Y6.103
X25.342 Y5.940
X25.593 Y5.829
X25.681 Y5.810
X25.593 Y5.791
X25.342 Y5.680
X25.119 Y5.518
X25.106 Y5.503
X22.896 Y5.501
X22.881 Y5.518
X22.658 Y5.680
X22.407 Y5.791
X22.319 Y5.810
X22.407 Y5.829
X22.658 Y5.940
X22.881 Y6.102
X22.894 Y6.117
X25.104 Y6.119
G0 Z3.000
G0  X29.104 Y6.119
G0  Z3.000
G01 F400 Z0
G01 F400 Z-0.200
G01F400X29.119 Y6.103
X29.342 Y5.940
X29.593 Y5.829
X29.681 Y5.810
X29.593 Y5.791
X29.342 Y5.680
X29.119 Y5.518
X29.106 Y5.503
X26.896 Y5.501
X26.881 Y5.518
X26.658 Y5.680
X26.407 Y5.791
X26.319 Y5.810
X26.407 Y5.829
X26.658 Y5.940
X26.881 Y6.102
X26.894 Y6.117
X29.104 Y6.119
G0 Z3.000
G0  X5.104 Y3.579
G0  Z3.000
G01 F400 Z0
G01 F400 Z-0.200
G01F400X5.119 Y3.563
X5.342 Y3.400
X5.593 Y3.289
X5.681 Y3.270
X5.593 Y3.251
X5.342 Y3.140
X5.119 Y2.978
X5.106 Y2.963
X2.896 Y2.961
X2.881 Y2.978
X2.658 Y3.140
X2.407 Y3.251
X2.319 Y3.270
X2.407 Y3.289
X2.658 Y3.400
X2.881 Y3.562
X2.894 Y3.577
X5.104 Y3.579
G0 Z3.000
G0  X9.104 Y3.579
G0  Z3.000
G01 F400 Z0
G01 F400 Z-0.200
G01F400X9.119 Y3.563
X9.342 Y3.400
X9.593 Y3.289
X9.681 Y3.270
X9.593 Y3.251
X9.342 Y3.140
X9.119 Y2.978
X9.106 Y2.963
X6.896 Y2.961
X6.881 Y2.978
X6.658 Y3.140
X6.407 Y3.251
X6.319 Y3.270
X6.407 Y3.289
X6.658 Y3.400
X6.881 Y3.562
X6.894 Y3.577
X9.104 Y3.579
G0 Z3.000
G0  X13.104 Y3.579
G0  Z3.000
G01 F400 Z0
G01 F400 Z-0.200
G01F400X13.119 Y3.563
X13.342 Y3.400
X13.593 Y3.289
X13.681 Y3.270
X13.593 Y3.251
X13.342 Y3.140
X13.119 Y2.978
X13.106 Y2.963
X10.896 Y2.961
X10.881 Y2.978
X10.658 Y3.140
X10.407 Y3.251
X10.319 Y3.270
X10.407 Y3.289
X10.658 Y3.400
X10.881 Y3.562
X10.894 Y3.577
X13.104 Y3.579
G0 Z3.000
G0  X17.104 Y3.579
G0  Z3.000
G01 F400 Z0
G01 F400 Z-0.200
G01F400X17.119 Y3.563
X17.342 Y3.400
X17.593 Y3.289
X17.681 Y3.270
X17.593 Y3.251
X17.342 Y3.140
X17.119 Y2.978
X17.106 Y2.963
X14.896 Y2.961
X14.881 Y2.978
X14.658 Y3.140
X14.407 Y3.251
X14.319 Y3.270
X14.407 Y3.289
X14.658 Y3.400
X14.881 Y3.562
X14.894 Y3.577
X17.104 Y3.579
G0 Z3.000
G0  X21.104 Y3.579
G0  Z3.000
G01 F400 Z0
G01 F400 Z-0.200
G01F400X21.119 Y3.563
X21.342 Y3.400
X21.593 Y3.289
X21.681 Y3.270
X21.593 Y3.251
X21.342 Y3.140
X21.119 Y2.978
X21.106 Y2.963
X18.896 Y2.961
X18.881 Y2.978
X18.658 Y3.140
X18.407 Y3.251
X18.319 Y3.270
X18.407 Y3.289
X18.658 Y3.400
X18.881 Y3.562
X18.894 Y3.577
X21.104 Y3.579
G0 Z3.000
G0  X25.104 Y3.579
G0  Z3.000
G01 F400 Z0
G01 F400 Z-0.200
G01F400X25.119 Y3.563
X25.342 Y3.400
X25.593 Y3.289
X25.681 Y3.270
X25.593 Y3.251
X25.342 Y3.140
X25.119 Y2.978
X25.106 Y2.963
X22.896 Y2.961
X22.881 Y2.978
X22.658 Y3.140
X22.407 Y3.251
X22.319 Y3.270
X22.407 Y3.289
X22.658 Y3.400
X22.881 Y3.562
X22.894 Y3.577
X25.104 Y3.579
G0 Z3.000
G0  X29.104 Y3.579
G0  Z3.000
G01 F400 Z0
G01 F400 Z-0.200
G01F400X29.119 Y3.563
X29.342 Y3.400
X29.593 Y3.289
X29.681 Y3.270
X29.593 Y3.251
X29.342 Y3.140
X29.119 Y2.978
X29.106 Y2.963
X26.896 Y2.961
X26.881 Y2.978
X26.658 Y3.140
X26.407 Y3.251
X26.319 Y3.270
X26.407 Y3.289
X26.658 Y3.400
X26.881 Y3.562
X26.894 Y3.577
X29.104 Y3.579
G0 Z3.000
M05
(  )
T608 M06
( Drilling )
M03 S10000
G00 X10.000 Y9.620
G0  Z3.000
G01 F120.0 Z-1.780
G00 Z3.000
G00 X10.000 Y7.080
G0  Z3.000
G01 F120.0 Z-1.780
G00 Z3.000
G00 X10.000 Y4.540
G0  Z3.000
G01 F120.0 Z-1.780
G00 Z3.000
G00 X10.000 Y2.000
G0  Z3.000
G01 F120.0 Z-1.780
G00 Z3.000
G00 X18.000 Y9.620
G0  Z3.000
G01 F120.0 Z-1.780
G00 Z3.000
G00 X18.000 Y7.080
G0  Z3.000
G01 F120.0 Z-1.780
G00 Z3.000
G00 X18.000 Y4.540
G0  Z3.000
G01 F120.0 Z-1.780
G00 Z3.000
G00 X18.000 Y2.000
G0  Z3.000
G01 F120.0 Z-1.780
G00 Z3.000
G00 X14.000 Y9.620
G0  Z3.000
G01 F120.0 Z-1.780
G00 Z3.000
G00 X14.000 Y7.080
G0  Z3.000
G01 F120.0 Z-1.780
G00 Z3.000
G00 X14.000 Y4.540
G0  Z3.000
G01 F120.0 Z-1.780
G00 Z3.000
G00 X14.000 Y2.000
G0  Z3.000
G01 F120.0 Z-1.780
G00 Z3.000
G00 X30.000 Y9.620
G0  Z3.000
G01 F120.0 Z-1.780
G00 Z3.000
G00 X30.000 Y7.080
G0  Z3.000
G01 F120.0 Z-1.780
G00 Z3.000
G00 X30.000 Y4.540
G0  Z3.000
G01 F120.0 Z-1.780
G00 Z3.000
G00 X30.000 Y2.000
G0  Z3.000
G01 F120.0 Z-1.780
G00 Z3.000
G00 X22.000 Y9.620
G0  Z3.000
G01 F120.0 Z-1.780
G00 Z3.000
G00 X22.000 Y7.080
G0  Z3.000
G01 F120.0 Z-1.780
G00 Z3.000
G00 X22.000 Y4.540
G0  Z3.000
G01 F120.0 Z-1.780
G00 Z3.000
G00 X22.000 Y2.000
G0  Z3.000
G01 F120.0 Z-1.780
G00 Z3.000
G00 X26.000 Y9.620
G0  Z3.000
G01 F120.0 Z-1.780
G00 Z3.000
G00 X26.000 Y7.080
G0  Z3.000
G01 F120.0 Z-1.780
G00 Z3.000
G00 X26.000 Y4.540
G0  Z3.000
G01 F120.0 Z-1.780
G00 Z3.000
G00 X26.000 Y2.000
G0  Z3.000
G01 F120.0 Z-1.780
G00 Z3.000
G00 X6.000 Y9.620
G0  Z3.000
G01 F120.0 Z-1.780
G00 Z3.000
G00 X6.000 Y7.080
G0  Z3.000
G01 F120.0 Z-1.780
G00 Z3.000
G00 X6.000 Y4.540
G0  Z3.000
G01 F120.0 Z-1.780
G00 Z3.000
G00 X6.000 Y2.000
G0  Z3.000
G01 F120.0 Z-1.780
G00 Z3.000
G00 X2.000 Y9.620
G0  Z3.000
G01 F120.0 Z-1.780
G00 Z3.000
G00 X2.000 Y7.080
G0  Z3.000
G01 F120.0 Z-1.780
G00 Z3.000
G00 X2.000 Y4.540
G0  Z3.000
G01 F120.0 Z-1.780
G00 Z3.000
G00 X2.000 Y2.000
G0  Z3.000
G01 F120.0 Z-1.780
G00 Z3.000
M05
(  )
T102 M06
( Routing )
M03 S10000
G0  X-1.588 Y13.588
G0  Z3.000
G01 F200 Z0
G01 F200 Z-0.790
G01F200X-1.588 Y-1.588
X33.587 Y-1.588
X33.587 Y13.588
X-1.588 Y13.588
G0 Z3.000
M03 S10000
G0  X-1.588 Y13.588
G0  Z3.000
G01 F200 Z0
G01 F200 Z-1.580
G01F200X-1.588 Y-1.588
X33.587 Y-1.588
X33.587 Y13.588
X-1.588 Y13.588
G0 Z3.000
G00 Z3.000
M05
M30
%